X:42
T:Hot Corn, Cold Corn
C: Traditional
R: Bluegrass
M: 4/4
L: 1/8
Q: 180
K: Gmaj
AA|:"G" B2 G2 G2 E2|G2 GG E E3|"D" A2 A2 A2 F2| A A2 AF D3|
w: 1.~Well it's up-stairs down-stairs out in the kit-chen, Up-stairs down-stairs out in the kit-chen,
w: 2.~Well it's old Aunt Peggy won'y you fill 'em up again, Old Aunt Peggy won't you fill'em up ag-ain
"G"B2 G2 G2 E2|G2 GG E D3|"D" A2 AA A2 AA | AAAA F D3 | "G" B4 G4 |
w: Up-stairs down-stairs out in the kit-chen, See Unc-le Bill just a rar-in' and a pick-in, yes sir!
w: Old Aunt Peggy won't you fill 'em up again, Ain't had a drink since I do-n't kn-ow wh-en, yes sir! 
|"G"B2 G2 G2 E2|GGGG ED D2| "D" A2 A2 A2 F2|AAAA FD D2|
w: Hot corn, cold corn, bring a-long a dem-i-john, Hot corn, cold corn, bring a-long a dem-i-john,
"G" B2 G2 G2 E2|GGGG ED D|"D" A2 A2 AA A2|AAAA F D3 | B4 G4 :|
w: Hot corn, cold corn, bring a-long a dem-i-john, Fare-well Unc-le Bill, see you in the morn-ing, yes sir!


